!!!OTL: DAS LIED VOM WEIN
!!!ARE: Europa, Mitteleuropa, Deutschland
!!!SCT: F0758
!!!YEM: Copyright 1995, estate of Helmut Schaffrath.
**kern
*ICvox
*Ivox
*M3/4
*k[f#c#g#]
*A:
{8e
=1
8.a
16a
4.a
8cc#
=2
8.cc#
16b
4.b}
{8dd
=3
8.cc#
16dd
4ee
4a
=4
8.cc#
16b
4a
8r}
{8a
=5
8.ee
16ee
4.ee
8ff#
=6
8.ee
16dd
4dd
8r}
{8b
=7
8.cc#
16cc#
4.ee
8cc#
=8
8.cc#
16b
4b
8r}
{8e
=9
8.a
16a
4.a
8cc#
=10
8.cc#
16b
4.b}
{8dd
=11
8.cc#
16dd
4ee
4a
=12
8.cc#
16b
4a
8r}
==
!!!AGN: Geselligkeits -, Trink - Lied
!!!ONB: ESAC (Essen Associative Code) Database: FINK
!!!AMT: simple triple
!!!AIN: vox
!!!EED: Helmut Schaffrath
!!!EEV: 1.0
*-
